X:1
T:7 Osanna
T: Johan August Söderman (1832 - 1876)
T:Andeliga Sånger (1872)
T:7 Osanna
T:Coro
C:Johan August Söderman
C:(1832 - 1876)
%%score [ 1 2 ( 3 4 ) 5 ]
L:1/8
Q:1/4=96
M:4/4
K:C
V:1 treble nm="Soprano" snm="S"
V:2 treble nm="Alto" snm="A"
V:3 treble-8 nm="Tenore" snm="T"
V:4 treble-8 
V:5 bass nm="Basso" snm="B"
V:1
"^Allegro moderato"!mf! G2 | (e3 d) c2 d2 | (f3!<(! e) d2!<)! e2 |!f! a3 g e2!>(! (dc)!>)! | %4
w: O-|san- * na, O-|san- * na, O-|san- na in ex- *|
!ff! d4 d2 e2 | !>!f4 !>!e4 | !>!d4 !>!c4 | (d6!>)!!>(! e2) | c2 z2 z4 | z8 |!mf! z G c3 B AB | %11
w: cel- sis, O-|san- na|in ex-|cel- *|sis.||O- san- na in ex-|
 (c3 B A2 c2 | BdcA FAGF) | E2 D2 (EG) G2 | AB (c4 B2) | c3 G d4- | d Aed (c2 ^f2 | %17
w: cel- * * *||sis, O- san- * na|in ex- cel- *|sis, O- san-|* na in ex- cel- *|
 ged!<(!c Bd^f!<)!e |!f! d^fag fedc) | B4 (ABcB) | A2 (AB) (cd/e/) (AB/c/) | %21
w: ||sis, O- * * *|san- na _ in _ _ ex- * *|
!mf! (de/f/!<(! Bc/d/) e2!<)! E2 |"^marc." (c3 B) A2 B2 | (d3 c)!<(! B2 c2!<)! | %24
w: cel- * * * * * sis O-|san- * na, O-|san- * na, O-|
!f! f3 e!>(! c2 (BA)!>)! |!ff! B4 B2 ^c2 | !>!d4 !>!B4 | !>!c4 !>!A4 | (G2 A4 A2- | %29
w: san- na in ex- *|cel- sis, O-|san- na|in ex-|cel- * *|
!>(! A4 G4)!>)! |!p! G2 z2"^dolce" E4 | (E2!<(! DC G!<)!!>(!FED)!>)! |!mf! GG !>!c3 B AB | %33
w: |sis, O-|san- * * * * * *|na, O- san- na in ex-|
 (c3 B A2 c2) | BG (de/d/ c2 A2) | G2 (FG/F/) (E2 D2) | C2 z2 z4 | z G c3 B AB | (c3 B A2 c2) | %39
w: cel- * * *|sis, ex- cel- * * * *|sis, O- * * san- *|na,|O- san- na in ex-|cel- * * *|
 B3 G (d2 g2- | g3 f) (e3 d) | c2!>(! (BA) (G3 F)!>)! |!p! E4 F2 E2 |!mf! A2 z2 G2 G2 | %44
w: sis, O- san- *|* * na _|in ex- * cel- *|sis, in ex-|cel- sis, O-|
 (e3 d) c2 d2 | (f3!<(! e) d2 e2!<)! |!f! a3 g e2 (dc) |!ff! d4 d2 e2 | !>!f4 !>!e4 | !>!d4 !>!c4 | %50
w: san- * na, O-|san- * na, O-|san- na in ex- *|cel- sis, O-|san- na|in ex-|
 c6!>(! B2!>)! |!mf! c8 | c8 |!p! c2 !>!E4 C2 | (C6"^rall." D2) | !fermata!E8 |] %56
w: cel- sis,|O-|san-|na in ex-|cel- *|sis.|
V:2
!mf! G2 | (c3 G) E2 G2 | (d3!<(! c) G2 c2!<)! |!f! f3 e c2!>(! (GE)!>)! |!ff! G4 G2 G2 | %5
w: O-|san- * na, O-|san- * na, O-|san- na in ex- *|cel- sis, O-|
 !>!A4 !>!A4 | !>!F4 !>!F4 | F8 |!mf!!>(! EC G3 E DE!>)! | (F3 E D2 F2) | E3 _E D2 F2 | %11
w: san- na|in ex-|cel-|sis. O- san- na in ex-|cel- * * *|sis, O- san- na|
 (E^FA)G (GEFD | GFEF DCB,D) | C3 B, C2 (B,C) | C3 G (F3 E/D/) | C2 G4 (AG) | (^F4- FcBA) | %17
w: in _ _ ex- cel- * * *||sis, O- san- na _|in ex- cel- * *|sis, in ex- *|cel- * * * *|
 G2!<(! A2 D3!<)! ^F |!f! ^F2 (FG) (A_B) A2 | G3 ^G (A3 =G- | G2) ^F2 G2 F2 | %21
w: sis, O- san- na|in ex- * cel- * sis|in ex- cel- *|* sis, in ex-|
!mf! ^G4!<)!!<(! A2 E2 |"^marc." (A3 E) C2 E2 | (B3 A)!<(! E2 A2!<)! |!f! d3 c!>(! A2 (EC)!>)! | %25
w: cel- sis, O-|san- * na, O-|san- * na, O-|san- na in ex- *|
!ff! E4 E2 G2 | !>!F4 !>!F4 | !>!E4 !>!D4 | (E4 F2 E2 |!>(! D8)!>)! |!p! C2 z2"^dolce" C4 | %31
w: cel- sis, O-|san- na|in ex-|cel- * *||sis, O-|
 (B,3!<(! C D2!<)!!>(! CB,)!>)! |!mf! C3 (A/G/) F4 | E6 E^F | G2 F2 (EF/E/) _E2 | %35
w: san- * * * *|na, O- * san-|na in ex-|cel- sis in _ _ ex-|
 D2 CC (B,C/B,/ A,B,) | CC !>!G3 E DE | (F3 E D2 F2) | E3 D (CB,/C/ F2) | D6- DG | %40
w: cel- sis, ex- cel- * * * *|sis, O- san- na in ex-|cel- * * *|sis, ex- cel- * * *|sis, _ O-|
 (GcB A2 G) (^F=F) | EE!>(! (_E2 D^C D2)!>)! |!p! E4 F2 E2 |!mf! D2 z2 D2 G2 | (c3 G) E2 G2 | %45
w: san- * * * * na _|in ex- cel- * * *|sis, in ex-|cel- sis, O-|san- * na, O-|
 (d3!<(! c) G2 c2!<)! |!f! f3 e d2 (GE) |!ff! G4 G2 G2 | !>!A4 !>!A4 | !>!F4 !>!F4 | %50
w: san- * na, O-|san- na in ex- *|cel- sis, O-|san- na|in ex-|
 (E4!>(! F4)!>)! |!mf! EC G3 E DE | (F3 E D2 F2) |!p! E2 !>!C4 C2 | C8 | !fermata!C8 |] %56
w: cel- *|sis, O- san- na in ex-|cel- * * *|sis, in ex-|cel-|sis.|
V:3
!mf! G2 | (e3 d) c2 d2 | (f3 e)!<(! d2 e2!<)! |!f! a3 g e2!>(! (dc)!>)! |!ff! d4 d2 c2 | %5
w: O-|san- * na, O-|san- * na, O-|san- na in ex- *|cel- sis, O-|
 !>!c4 !>!c4 | !>!A4 !>!A4 | AAdc!>(! (cBAB)!>)! | c2 z2 z4 | z8 | z8 | z8 | z8 | z8 | z8 | %15
w: san- na|in ex-|cel- sis, in ex- cel- * * *|sis.|||||||
!mf! z G c3 B AB | (c3 B A2 c2) | B2 A2!<(! (GBd!<)!^c |!f! BdcB AG^Fd) | d2 e4- ee | %20
w: O- san- na in ex-|cel- * * *|sis, ex- cel- * * *||sis, in _ ex-|
 (e_e) d2 =e2 d2 |!mf! (f2 e2)!<(! e2!<)! E2 |"^marc." (c3 B) A2 B2 | (d3 c)!<(! B2 c2!<)! | %24
w: cel- * sis, in ex-|cel- * sis, O-|san- * na, O-|san- * na, O-|
!f! f3 e!>(! c2 (B!>)!A) |!ff! B4 B2 A2 | !>!d4 !>!d4 | !>!c4 !>!c4 | (c2 ^c2 d2 =c2 | %29
w: san- na in ex- *|cel- sis, O-|san- na|in ex-|cel- * * *|
!>(! B8)!>)! |!p! c2 z2"^dolce" G4 | (G4!<(! A2!<)!!>(! G2)!>)! |!mf! G6- G (e/d/) | %33
w: |sis, O-|san- * *|na, _ O- *|
 (cAed c) (B/c/) dd | d2 B2 c2 (cd/c/) | B2 AA (G2 FG/F/) | E2 z2 z4 | z8 | z8 | z G !>!d3 B AB | %40
w: san- * * * * na _ in ex-|cel- sis in ex- * *|cel- sis, ex- cel- * * *|sis,|||O- san- na in ex-|
 (c6 AB) | c2!>(! cc (B_B A2)!>)! |!p! c4 c2 c2 |!mf! c2 z2 B2 G2 | (e3 d) c2 d2 | %45
w: cel- * *|sis, in ex- cel- * *|sis, in ex-|cel- sis, O-|san- * na, O-|
 (f3!<(! e) d2 e2!<)! |!f! a3 g e2 (dc) |!ff! d4 d2 c2 | !>!c4 !>!^c4 | !>!d4 !>!A4 | %50
w: san- * na, O-|san- na in ex- *|cel- sis, O-|san- na|in ex-|
!<(! Gcd!<)!!>(!e (e2!>)! d2) |!mf! c2 z C (_B4 | A3 G F2 A2) |!p! G2 !>!_B4 B2 | (_B4 A2 _A2) | %55
w: cel- sis in ex- cel- *|sis, O- san-||na in ex-|cel- * *|
 !fermata!G8 |] %56
w: sis.|
V:4
 x2 | x8 | x8 | x8 | x8 | x8 | x8 | x8 | x8 | x8 | x8 | x8 | x8 | x8 | x8 | x8 | x8 | x8 | x8 | %19
 x8 | x8 | x8 | x8 | x8 | x8 | x8 | x8 | x8 | x8 | x8 | x8 | x8 | x8 | x8 | x8 | x8 | x8 | x8 | %38
 x8 | x8 | x8 | x8 | x8 | x8 | (c3 G) E2 G2 | (d3 c) G2 c2 | f3 e e2 (dc) | x8 | x8 | x8 | x8 | %51
 x8 | x8 | x8 | x8 | x8 |] %56
V:5
!mf! G,2 | (C3 G,) E,2 G,2 | (D3 C)!<(! G,2 C2!<)! |!f! F3 E C2!>(! (G,E,)!>)! |!ff! G,4 G,2 C2 | %5
w: O-|san- * na, O-|san- * na, O-|san- na in ex- *|cel- sis, O-|
 !>!F,4 !>!A,4 | !>!D,4 !>!F,4 |!<(! (D,4!<)! G,4) |!>(! C,2 z2 z4!>)! | z8 | z8 | z8 | z8 | %13
w: san- na|in ex-|cel- *|sis.|||||
!mf! z C, G,3 E, D,E, | (F,3 E, D,2 F,2) | E,3 _E, (D,4- | D,6 ^D,2) | E,2 ^F,2!<(! G,2!<)! F,2 | %18
w: O- san- na in ex-|cel- * * *|sis, O- san-||na, O- san- na|
!f! B,2 D,2 D,4 | G,G, C3 B, A,B, | (C3 B, A,2 C2 |!mf! B,2 D2)!<(! C2!<)! E,2 | %22
w: in ex- cel-|sis, O- san- na in ex-|cel- * * *|* * sis, O-|
"^marc." (A,3 E,) C,2 E,2 | (B,3 A,)!<(! E,2!<)! A,2 |!f! D3 C!>(! A,2 (E,C,)!>)! | %25
w: san- * na, O-|san- * na, O-|san- na in ex- *|
!ff! E,4 E,2 A,2 | !>!D,4 !>!G,4 | !>!C,4 !>!F,4 | (G,8- |!>(! G,6!>)! F,2) | %30
w: cel- sis, O-|san- na|in ex-|cel-||
!mf!!p! E,C, !>!G,3"^dolce" E, D,E, | (F,3!<(! E, D,2!<)!!>(! F,2)!>)! | E,3 _E, D,2 G,2 | %33
w: sis, O- san- na in ex-|cel- * * *|sis, O- san- na|
 A,6 D,2 | G,8 | G,G, !>!G,,6 | C,2 z2 z4 | z8 | z C, !>!G,3 F, D,(E,/F,/) | (G,2 F,6) | %40
w: in ex-|cel-|sis, O- san-|na,||O- san- na in ex- *|cel- *|
 E,2 F,2 G,4 | A,2!>(! ^F,F, (=F,E, F,2)!>)! |!p! G,4 A,2 G,2 | F,2 z2 G,2 z2 | %44
w: sis, O- san-|na in ex- cel- * *|sis, in ex-|cel- sis,|
!mf! z C, C,2 C,2 z2 | z G, G,2!<(! G,2!<)! z2 |!f! z C C2 C2 G,E, |!ff! G,4 G,2 C2 | %48
w: O- san- na,|O- san- na,|O- san- na in ex-|cel- sis, O-|
 !>!F,4 !>!A,4 | !>!D,4 !>!F,4 | G,6!>(! G,2!>)! |!mf! C,8 | C,8 |!p! C,C, !>!G,3 E, D,E, | F,8 | %55
w: san- na|in ex-|cel- sis,|O-|san-|na, O- san- na in ex-|cel-|
 !fermata!C,8 |] %56
w: sis.|

